X: 380
T: Been to the East, Been to the West
B: jims roots
M:C|
L:1/8
R: reel
Q: 1/4=100
K:G
V:1 
|:Bc|"G"d2d2BABc|d2d2B2Bc|d2d2 B3G | "D"A2"G"G4Bc |
"G"d2d2BABc|d2d2B2Bc|"C"g2e2 "D"d3B | "G"A2G4 :|
|:d2| "G"g2g2gfga | "D"b2a4fg | a2a2abag | "G (Bm)"e2d4d2 |
"C"e4edef |"D"g2f4ef | "C"gfed"D"B2B2 | "G"A2G4:|
% abcbook-tune_id 6298c2450bad1808822b62d5


% abcbook-boost 0
% abcbook-tablature 
% abcbook-transpose 
% abcbook-lastupdated 1654178373274
% abcbook-soundfonts 
% abcbook-repeats 1


